rospo-icon-theme-classic-common/22x22/apps/gelemental.svg

<svg height="22" width="22" xmlns="http://www.w3.org/2000/svg"><g transform="translate(-.999344 -1)"><path d="m10 2.5c-1.108 0-2 .892-2 2v7.25l-1.9785156 2.853516-2.5722656 3.705078a3.3579064 2.7942702 0 0 0 2.9082031 4.191406h5.1425781 5.142578a3.3579064 2.7942702 0 0 0 2.908203-4.191406l-2.572265-3.705078-1.978516-2.853516v-7.25c0-1.108-.892-2-2-2z" opacity=".2"/><path d="m10 2h3c1.108 0 2 .892 2 2v7.7c0 1.108-.892 2-2 2h-3c-1.108 0-2-.892-2-2v-7.7c0-1.108.892-2 2-2z" fill="#e4e4e4"/><path d="m11.658055 9.0030835a3.3579064 2.7942702 0 0 0 -3.0655355 1.3937595l-2.5715395 3.706189-2.5715399 3.706188a3.3579064 2.7942702 0 0 0 2.9080819 4.19078h5.142478 5.142478a3.3579064 2.7942702 0 0 0 2.908082-4.190779l-2.57154-3.706189-2.570939-3.706189a3.3579064 2.7942702 0 0 0 -2.750026-1.3937595z" fill="#e4e4e4"/><g fill="#b343ff"><path d="m12 5a1 1 0 0 0 -1 1 1 1 0 0 0 1 1 1 1 0 0 0 1-1 1 1 0 0 0 -1-1z"/><path d="m10 8a1 1 0 0 0 -1 1 1 1 0 0 0 1 1 1 1 0 0 0 1-1 1 1 0 0 0 -1-1z"/><path d="m13 10a1 1 0 0 0 -1 1 1 1 0 0 0 1 1 1 1 0 0 0 1-1 1 1 0 0 0 -1-1z"/><path d="m11 13a1 1 0 0 0 -1 1 1 1 0 0 0 1 1 1 1 0 0 0 1-1 1 1 0 0 0 -1-1z"/><path d="m7.328125 16-1.0371095 1.420898a2.172763 1.7195509 0 0 0 1.881836 2.579102h3.3271485 3.327149a2.172763 1.7195509 0 0 0 1.881836-2.579102l-1.03711-1.420898z"/></g><path d="m10 2c-1.108 0-2 .892-2 2v .5c0-1.108.892-2 2-2h3c1.108 0 2 .892 2 2v-.5c0-1.108-.892-2-2-2zm-2 9.25-1.9785156 2.853516-2.5722656 3.705078a3.3579064 2.7942702 0 0 0 -.4335938 1.654297 3.3579064 2.7942702 0 0 1  .4335938-1.154297l2.5722656-3.705078 1.9785156-2.853516zm7 0v .5l1.978516 2.853516 2.572265 3.705078a3.3579064 2.7942702 0 0 1  .433594 1.152344 3.3579064 2.7942702 0 0 0 -.433594-1.652344l-2.572265-3.705078z" fill="#fff" opacity=".2"/></g></svg>

<svg xmlns="http://www.w3.org/2000/svg" width="22" height="22" version="1">
 <g transform="translate(-0.99934416,-1)">
  <path style="opacity:0.2" d="m 10,2.5 c -1.108,0 -2,0.892 -2,2 l 0,7.25 -1.9785156,2.853516 -2.5722656,3.705078 A 3.3579064,2.7942702 0 0 0 6.3574219,22.5 l 5.1425781,0 5.142578,0 a 3.3579064,2.7942702 0 0 0 2.908203,-4.191406 L 16.978516,14.603516 15,11.75 15,4.5 c 0,-1.108 -0.892,-2 -2,-2 l -3,0 z"/>
  <path style="fill:#cccccc" d="m 10,2 3,0 c 1.108,0 2,0.892 2,2 l 0,7.7 c 0,1.108 -0.892,2 -2,2 l -3,0 c -1.108,0 -2,-0.892 -2,-2 L 8,4 C 8,2.892 8.892,2 10,2 Z"/>
  <path style="fill:#cccccc" d="M 11.658055,9.0030835 A 3.3579064,2.7942702 0 0 0 8.5925195,10.396843 L 6.02098,14.103032 3.4494401,17.80922 A 3.3579064,2.7942702 0 0 0 6.357522,22 L 11.5,22 16.642478,22 A 3.3579064,2.7942702 0 0 0 19.55056,17.809221 L 16.97902,14.103032 14.408081,10.396843 A 3.3579064,2.7942702 0 0 0 11.658055,9.0030835 Z"/>
  <path style="fill:#b343ff" d="M 12,5 A 1,1 0 0 0 11,6 1,1 0 0 0 12,7 1,1 0 0 0 13,6 1,1 0 0 0 12,5 Z"/>
  <path style="fill:#b343ff" d="M 10,8 A 1,1 0 0 0 9,9 1,1 0 0 0 10,10 1,1 0 0 0 11,9 1,1 0 0 0 10,8 Z"/>
  <path style="fill:#b343ff" d="m 13,10 a 1,1 0 0 0 -1,1 1,1 0 0 0 1,1 1,1 0 0 0 1,-1 1,1 0 0 0 -1,-1 z"/>
  <path style="fill:#b343ff" d="m 11,13 a 1,1 0 0 0 -1,1 1,1 0 0 0 1,1 1,1 0 0 0 1,-1 1,1 0 0 0 -1,-1 z"/>
  <path style="fill:#b343ff" d="M 7.328125,16 6.2910155,17.420898 A 2.172763,1.7195509 0 0 0 8.1728515,20 L 11.5,20 l 3.327149,0 a 2.172763,1.7195509 0 0 0 1.881836,-2.579102 L 15.671875,16 7.328125,16 Z"/>
  <path style="opacity:0.2;fill:#ffffff" d="M 10,2 C 8.892,2 8,2.892 8,4 l 0,0.5 c 0,-1.108 0.892,-2 2,-2 l 3,0 c 1.108,0 2,0.892 2,2 L 15,4 C 15,2.892 14.108,2 13,2 L 10,2 Z M 8,11.25 6.0214844,14.103516 3.4492188,17.808594 A 3.3579064,2.7942702 0 0 0 3.015625,19.462891 3.3579064,2.7942702 0 0 1 3.4492188,18.308594 L 6.0214844,14.603516 8,11.75 8,11.25 Z m 7,0 0,0.5 1.978516,2.853516 2.572265,3.705078 a 3.3579064,2.7942702 0 0 1 0.433594,1.152344 3.3579064,2.7942702 0 0 0 -0.433594,-1.652344 L 16.978516,14.103516 15,11.25 Z"/>
 </g>
</svg>
